development/symbols/media-instagram.svg

<svg height="28" viewBox="0 0 28 28" width="28" xmlns="http://www.w3.org/2000/svg"><path clip-rule="evenodd" d="m14 2.52326c3.7382 0 4.181.01428 5.6572.08163 1.365.06225 2.1063.29032 2.5996.48204.6535.25397 1.1199.55734 1.6097 1.04722.49.48993.7933.9563 1.0473 1.60978.1917.49332.4198 1.23461.4821 2.59959.0673 1.47624.0816 1.91908.0816 5.65718s-.0143 4.1809-.0816 5.6572c-.0623 1.365-.2904 2.1063-.4821 2.5996-.254.6535-.5573 1.1198-1.0472 1.6097s-.9563.7933-1.6098 1.0473c-.4933.1917-1.2346.4198-2.5996.482-1.476.0674-1.9188.0816-5.6572.0816s-4.18111-.0142-5.65719-.0816c-1.36499-.0622-2.10627-.2903-2.5996-.482-.65348-.254-1.11985-.5574-1.60973-1.0473-.48987-.4899-.7933-.9562-1.04727-1.6097-.19173-.4933-.4198-1.2346-.48204-2.5996-.06736-1.4763-.08164-1.9191-.08164-5.6572s.01428-4.18094.08164-5.65718c.06224-1.36498.29031-2.10627.48204-2.59959.25397-.65348.55734-1.11985 1.04727-1.60973.48988-.48993.95625-.7933 1.60973-1.04727.49333-.19172 1.23461-.41979 2.5996-.48204 1.47624-.06735 1.91909-.08163 5.65719-.08163zm0-2.52251232c-3.8022 0-4.27892.01611612-5.77217.08424852-1.49014.0679658-2.50785.3046508-3.39835.6507028-.92062.357781-1.70137.836481-2.47973 1.614781-.7783.77835-1.257 1.5591-1.614729 2.47972-.346109.8905-.582795 1.90821-.6507607 3.39834-.0681327 1.49324-.08424886 1.96996-.08424886 5.77216s.01611616 4.2789.08424886 5.7722c.0679657 1.4901.3046517 2.5078.6507607 3.3983.357729.9206.836429 1.7014 1.614729 2.4797.77836.7783 1.55911 1.257 2.47973 1.6147.8905.3462 1.90821.5828 3.39835.6508 1.49325.0681 1.96997.0843 5.77217.0843s4.2789-.0162 5.7722-.0843c1.4901-.068 2.5078-.3046 3.3983-.6508.9207-.3577 1.7014-.8364 2.4798-1.6147.7783-.7783 1.257-1.5591 1.6148-2.4797.346-.8905.5827-1.9082.6507-3.3983.0681-1.4933.0842-1.97.0842-5.7722s-.0161-4.27892-.0842-5.77216c-.068-1.49013-.3047-2.50784-.6507-3.39834-.3578-.92062-.8365-1.70137-1.6148-2.47972-.7784-.7783-1.5591-1.257-2.4798-1.614781-.8905-.346052-1.9082-.582737-3.3983-.6507028-1.4933-.0681324-1.97-.08424852-5.7722-.08424852zm.0067 6.81729232c-3.9706 0-7.18926 3.21866-7.18926 7.18916s3.21866 7.1892 7.18926 7.1892c3.9704 0 7.1891-3.2187 7.1891-7.1892s-3.2187-7.18916-7.1891-7.18916zm0 11.85586c-2.5774 0-4.66674-2.0894-4.66674-4.6667s2.08934-4.66665 4.66674-4.66665c2.5773 0 4.6666 2.08935 4.6666 4.66665s-2.0893 4.6667-4.6666 4.6667zm7.4724-10.46444c.9279 0 1.68-.75218 1.68-1.67997 0-.92785-.7521-1.68003-1.68-1.68003-.9278 0-1.68.75218-1.68 1.68003 0 .92779.7522 1.67997 1.68 1.67997z" fill-rule="evenodd"/></svg>

<svg width="28" height="28" viewBox="0 0 28 28" xmlns="http://www.w3.org/2000/svg">
    <path fill-rule="evenodd" clip-rule="evenodd" d="M14 2.52326C17.7382 2.52326 18.181 2.53754 19.6572 2.60489C21.0222 2.66714 21.7635 2.89521 22.2568 3.08693C22.9103 3.3409 23.3767 3.64427 23.8665 4.13415C24.3565 4.62408 24.6598 5.09045 24.9138 5.74393C25.1055 6.23725 25.3336 6.97854 25.3959 8.34352C25.4632 9.81976 25.4775 10.2626 25.4775 14.0007C25.4775 17.7388 25.4632 18.1816 25.3959 19.6579C25.3336 21.0229 25.1055 21.7642 24.9138 22.2575C24.6598 22.911 24.3565 23.3773 23.8666 23.8672C23.3767 24.3571 22.9103 24.6605 22.2568 24.9145C21.7635 25.1062 21.0222 25.3343 19.6572 25.3965C18.1812 25.4639 17.7384 25.4781 14 25.4781C10.2616 25.4781 9.81889 25.4639 8.34281 25.3965C6.97782 25.3343 6.23654 25.1062 5.74321 24.9145C5.08973 24.6605 4.62336 24.3571 4.13348 23.8672C3.64361 23.3773 3.34018 22.911 3.08621 22.2575C2.89448 21.7642 2.66641 21.0229 2.60417 19.6579C2.53681 18.1816 2.52253 17.7388 2.52253 14.0007C2.52253 10.2626 2.53681 9.81976 2.60417 8.34352C2.66641 6.97854 2.89448 6.23725 3.08621 5.74393C3.34018 5.09045 3.64355 4.62408 4.13348 4.1342C4.62336 3.64427 5.08973 3.3409 5.74321 3.08693C6.23654 2.89521 6.97782 2.66714 8.34281 2.60489C9.81905 2.53754 10.2619 2.52326 14 2.52326ZM14 0.000747681C10.1978 0.000747681 9.72108 0.0168638 8.22783 0.0849962C6.73769 0.152962 5.71998 0.389647 4.82948 0.735699C3.90886 1.09348 3.12811 1.57218 2.34975 2.35048C1.57145 3.12883 1.09275 3.90958 0.735021 4.8302C0.388912 5.7207 0.152226 6.73841 0.0842603 8.22854C0.0161276 9.72178 1.14441e-05 10.1985 1.14441e-05 14.0007C1.14441e-05 17.8029 0.0161276 18.2796 0.0842603 19.7729C0.152226 21.263 0.388912 22.2807 0.735021 23.1712C1.09275 24.0918 1.57145 24.8726 2.34975 25.6509C3.12811 26.4292 3.90886 26.9079 4.82948 27.2656C5.71998 27.6118 6.73769 27.8484 8.22783 27.9164C9.72108 27.9845 10.1978 28.0007 14 28.0007C17.8022 28.0007 18.2789 27.9845 19.7722 27.9164C21.2623 27.8484 22.28 27.6118 23.1705 27.2656C24.0912 26.9079 24.8719 26.4292 25.6503 25.6509C26.4286 24.8726 26.9073 24.0918 27.2651 23.1712C27.6111 22.2807 27.8478 21.263 27.9158 19.7729C27.9839 18.2796 28 17.8029 28 14.0007C28 10.1985 27.9839 9.72178 27.9158 8.22854C27.8478 6.73841 27.6111 5.7207 27.2651 4.8302C26.9073 3.90958 26.4286 3.12883 25.6503 2.35048C24.8719 1.57218 24.0912 1.09348 23.1705 0.735699C22.28 0.389647 21.2623 0.152962 19.7722 0.0849962C18.2789 0.0168638 17.8022 0.000747681 14 0.000747681ZM14.0067 6.81804C10.0361 6.81804 6.81744 10.0367 6.81744 14.0072C6.81744 17.9777 10.0361 21.1964 14.0067 21.1964C17.9771 21.1964 21.1958 17.9777 21.1958 14.0072C21.1958 10.0367 17.9771 6.81804 14.0067 6.81804ZM14.0067 18.6739C11.4293 18.6739 9.33996 16.5845 9.33996 14.0072C9.33996 11.4299 11.4293 9.34055 14.0067 9.34055C16.584 9.34055 18.6733 11.4299 18.6733 14.0072C18.6733 16.5845 16.584 18.6739 14.0067 18.6739ZM21.4791 8.20946C22.407 8.20946 23.1591 7.45728 23.1591 6.52949C23.1591 5.60164 22.407 4.84946 21.4791 4.84946C20.5513 4.84946 19.7991 5.60164 19.7991 6.52949C19.7991 7.45728 20.5513 8.20946 21.4791 8.20946Z"/>
</svg>
